X:149 
T:Noon Lasses (reel), The 
F:file ID: cre.5/149noon
B:CRE5.119 (GearrchailÃÂÃÂÃÂÃÂ­ na NÃÂÃÂÃÂÃÂ³na)
Q:180
M:4/4
R:reel
K:G
F|G2BG AGBG|G2BG AGEF|G2BG AGAc|BAGE EDD:|
B|dedB AGAB|dedB AGEB|dedB AGAc|BAGE EDD:|
B|dgbg agbg|g2bg agef|gage dBAB|GAGE EDD:|
g|edBd edBd|edBA GEEg|edBd edBA|GAGE EDD:|

%%%

